!!!COM:	Du Fay, Guillaume
!!!CDT:	~1397/08/05/-1474/11/27
!!!OPR:	Missa Ecce ancilla domini
!!!ONM:	3
!!!OTL:	Credo
!!!AGN:	Mass; Credo
!!!SCT:	Duf1003c
!!!SCA:	Duf1003c
!!!voices:	4
!!!voices-OPR:	4
**kern	**text	**kern	**text	**kern	**text	**kern	**text
*staff4	*staff4	*staff3	*staff3	*staff2	*staff2	*staff1	*staff1
*Ivox	*	*Ivox	*	*Ivox	*	*Ivox	*
*I"Tenor2	*	*I"Tenor1	*	*I"Contratenor	*	*I"Cantus	*
*I'T2	*	*I'T1	*	*I'Ct	*	*I'Cn	*
*>[A,B,C]	*>[A,B,C]	*>[A,B,C]	*>[A,B,C]	*>[A,B,C]	*>[A,B,C]	*>[A,B,C]	*>[A,B,C]
*>A	*>A	*>A	*>A	*>A	*>A	*>A	*>A
*clefF4	*	*clefGv2	*	*clefGv2	*	*clefG2	*
*k[b-]	*	*k[]	*	*k[]	*	*k[]	*
*M3/1	*	*M3/1	*	*M3/1	*	*M3/1	*
*met(O)	*	*met(O)	*	*met(O)	*	*met(O)	*
!!section: Patrem
!!!OMD: Patrem
=1-	=1-	=1-	=1-	=1-	=1-	=1-	=1-
0.r	.	0.r	.	1.G	Pa-	0.g	Pa-
.	.	.	.	2A/	.	.	.
.	.	.	.	1B	.	.	.
=2	=2	=2	=2	=2	=2	=2	=2
0.r	.	0.r	.	1c	.	1e	.
.	.	.	.	1.d	.	1.f	.
.	.	.	.	2c\	.	2e/	.
=3	=3	=3	=3	=3	=3	=3	=3
0.r	.	0.r	.	0c	-trem	1e	.
.	.	.	.	.	.	1.a	.
.	.	.	.	1A	om-	.	.
.	.	.	.	.	.	2g/	.
=4	=4	=4	=4	=4	=4	=4	=4
0.r	.	0.r	.	1B	-ni-	0g	-trem
.	.	.	.	1.c	.	.	.
.	.	.	.	.	.	2e/	om-
.	.	.	.	2B\	.	2d/	.
=5	=5	=5	=5	=5	=5	=5	=5
0.r	.	0.r	.	0G	-po-	1e	-ni-
.	.	.	.	.	.	2d/	-po-
.	.	.	.	.	.	1d	-ten-
.	.	.	.	2G/	-ten-	.	.
.	.	.	.	2E/	.	4c/	.
.	.	.	.	.	.	4B/	.
=6	=6	=6	=6	=6	=6	=6	=6
0.r	.	0.r	.	1F#i	.	1A	.
.	.	.	.	1G	-tem,	0G	-tem,
.	.	.	.	1r	.	.	.
=7	=7	=7	=7	=7	=7	=7	=7
0.r	.	0.r	.	1G	fac-	0.r	.
.	.	.	.	1.A	-to-	.	.
.	.	.	.	2G/	.	.	.
=8	=8	=8	=8	=8	=8	=8	=8
0.r	.	0.r	.	1E	-rem	1g	fac-
.	.	.	.	2D/	ce-	1.a	-to-
.	.	.	.	1F	.	.	.
.	.	.	.	2E/	.	2g/	.
=9	=9	=9	=9	=9	=9	=9	=9
0.r	.	0.r	.	1C	-li	1e	-rem
.	.	.	.	1D	et	2d/	ce-
.	.	.	.	.	.	2.f/	.
.	.	.	.	1F	.	.	.
.	.	.	.	.	.	4e/	.
.	.	.	.	.	.	2d/	.
=10	=10	=10	=10	=10	=10	=10	=10
0.r	.	0.r	.	2E/	ter-	1c	-li
.	.	.	.	2A/	.	.	.
.	.	.	.	2G/	.	2.d/	et
.	.	.	.	4F/	.	.	.
.	.	.	.	4E/	.	4e/	.
.	.	.	.	1D	.	1f	.
=11	=11	=11	=11	=11	=11	=11	=11
0.r	.	0.r	.	1C	-re,	2e/	ter-
.	.	.	.	.	.	2.g/	.
.	.	.	.	1r	.	.	.
.	.	.	.	.	.	4f/	.
.	.	.	.	.	.	2e/	.
.	.	.	.	1B	vi-	1d	.
=12	=12	=12	=12	=12	=12	=12	=12
0.r	.	0.r	.	1.c	-si-	1c	-re,
.	.	.	.	.	.	1r	.
.	.	.	.	1c	-bi-	.	.
.	.	.	.	.	.	1e	vi-
.	.	.	.	2c\	-li-	.	.
=13	=13	=13	=13	=13	=13	=13	=13
0.r	.	0.r	.	0G	-um	1.g	-si-
.	.	.	.	.	.	1g	-bi-
.	.	.	.	1G	om-	.	.
.	.	.	.	.	.	2g/	-li-
=14	=14	=14	=14	=14	=14	=14	=14
0.r	.	0.r	.	2F/	.	2d/	-um
.	.	.	.	1G	.	2e/	.
.	.	.	.	.	.	2d/	.
.	.	.	.	2B\	.	1g	om-
.	.	.	.	1A	-ni-	.	.
.	.	.	.	.	.	2f#i/	-ni-
=15	=15	=15	=15	=15	=15	=15	=15
0.r	.	0.r	.	1G	-um,	1g	-um,
.	.	.	.	1C	et	1r	.
.	.	.	.	2.E/	in-	1c	et
.	.	.	.	4F/	.	.	.
=16	=16	=16	=16	=16	=16	=16	=16
0.r	.	0.r	.	2G/	-vi-	2.e/	in-
.	.	.	.	2A/	.	.	.
.	.	.	.	.	.	4f/	.
.	.	.	.	2G/	-si-	2g/	-vi-
.	.	.	.	2.c\	-bi-	2a/	-si-
.	.	.	.	.	.	2g/	-bi-
.	.	.	.	4B\	.	.	.
.	.	.	.	4A/	.	[2e/	.
.	.	.	.	4G/	.	.	.
=17	=17	=17	=17	=17	=17	=17	=17
0.r	.	0.r	.	2G/	.	4e/]	.
.	.	.	.	.	.	4d/	.
.	.	.	.	2F/	.	4f/	.
.	.	.	.	.	.	4e/	.
.	.	.	.	2G/	.	4d/	.
.	.	.	.	.	.	4c/	.
.	.	.	.	2E/	.	1c	.
.	.	.	.	1D	-li-	.	.
.	.	.	.	.	.	2B/	-li-
=18	=18	=18	=18	=18	=18	=18	=18
0.r	.	0.r	.	0C	-um.	0.c	-um.
.	.	.	.	1r	.	.	.
=19	=19	=19	=19	=19	=19	=19	=19
0.r	.	0.r	.	1C	Et	1r	.
.	.	.	.	2C/	in	1G	Et
.	.	.	.	1E	u-	.	.
.	.	.	.	.	.	2G/	in
.	.	.	.	2E/	-num	[2B/	u-
=20	=20	=20	=20	=20	=20	=20	=20
0.r	.	0.r	.	1G	do-	2B/]	.
.	.	.	.	.	.	2B/	-num
.	.	.	.	2G/	-mi-	1d	do-
.	.	.	.	1D	-num	.	.
.	.	.	.	.	.	2d/	-mi-
.	.	.	.	2D/	Je-	[2A/	-num
=21	=21	=21	=21	=21	=21	=21	=21
0.r	.	0.r	.	1.F	-sum	2A/]	.
.	.	.	.	.	.	2A/	Je-
.	.	.	.	.	.	1c	-sum
.	.	.	.	2A/	Chri-	.	.
.	.	.	.	2G/	.	2d/	Chri-
.	.	.	.	[2c\	.	4c/	.
.	.	.	.	.	.	[4e/	.
=22	=22	=22	=22	=22	=22	=22	=22
0.r	.	0.r	.	2c\]	.	4e/]	.
.	.	.	.	.	.	4f/	.
.	.	.	.	2B\	.	2d/	.
.	.	.	.	2G/	.	2g/	.
.	.	.	.	2B\	.	1g	.
.	.	.	.	1A	.	.	.
.	.	.	.	.	.	2f#i/	.
=23	=23	=23	=23	=23	=23	=23	=23
0.r	.	0.r	.	0.G	-stum,	1g	-stum,
.	.	.	.	.	.	1r	.
.	.	.	.	.	.	1r	.
=24	=24	=24	=24	=24	=24	=24	=24
0.r	.	0.r	.	1r	.	0e	fi-
.	.	.	.	1c	fi-	.	.
.	.	.	.	1B	-li-	1d	-li-
=25	=25	=25	=25	=25	=25	=25	=25
0.r	.	0.r	.	1c	-um	1e	-um
.	.	.	.	1.d	de-	1.f	de-
.	.	.	.	2c\	.	2e/	.
=26	=26	=26	=26	=26	=26	=26	=26
0.r	.	0.r	.	0c	-i	0e	-i
.	.	.	.	1B	u-	1d	u-
=27	=27	=27	=27	=27	=27	=27	=27
0.r	.	0.r	.	1c	.	1.e	.
.	.	.	.	0A	-ni-	.	.
.	.	.	.	.	.	2d/	.
.	.	.	.	.	.	1c	-ni-
=28	=28	=28	=28	=28	=28	=28	=28
0.r	.	0.r	.	1G	-ge-	2B/	-ge-
.	.	.	.	.	.	1A	.
.	.	.	.	2F/	.	.	.
.	.	.	.	1G	.	2G/	.
.	.	.	.	.	.	2B/	.
.	.	.	.	2E/	.	2c/	.
=29	=29	=29	=29	=29	=29	=29	=29
0.r	.	0.r	.	2F/	.	2d/	.
.	.	.	.	2G/	.	2.e/	.
.	.	.	.	1C	.	.	.
.	.	.	.	.	.	4c/	.
.	.	.	.	.	.	2c/	.
.	.	.	.	1D	-ni-	2A/	-ni-
.	.	.	.	.	.	2B/	.
=30	=30	=30	=30	=30	=30	=30	=30
0.r	.	0.r	.	1C	-tum.	1c	-tum.
.	.	.	.	1r	.	1r	.
.	.	.	.	1C	Et	1e	Et
=31	=31	=31	=31	=31	=31	=31	=31
0.r	.	0.G	Ec-	0C	ex	1.e	ex
.	.	.	.	.	.	2f/	.
.	.	.	.	1C	pa-	1g	pa-
=32	=32	=32	=32	=32	=32	=32	=32
0.C	An-	[0.c	.	1.E	-tre	1g	-tre
.	.	.	.	.	.	1.e	na-
.	.	.	.	2F/	.	.	.
.	.	.	.	1G	na-	.	.
.	.	.	.	.	.	2c/	.
=33	=33	=33	=33	=33	=33	=33	=33
0F	.	0.c]	.	0.A	-tum	1c	-tum
.	.	.	.	.	.	1f	an-
2F\	-te	.	.	.	.	1f	-te
2G\	.	.	.	.	.	.	.
=34	=34	=34	=34	=34	=34	=34	=34
0A	om-	0.c	-ce	1r	.	2e/	om-
.	.	.	.	.	.	1a	.
.	.	.	.	1r	.	.	.
.	.	.	.	.	.	2g/	.
1A	-ni-	.	.	1c	an-	2e/	-ni-
.	.	.	.	.	.	2f#i/	.
=35	=35	=35	=35	=35	=35	=35	=35
0.G	-a	[0.B	.	1d	-te-	1g	-a
.	.	.	.	1d	-om-	1g	se-
.	.	.	.	2d\	-ni-	2g/	-cu-
.	.	.	.	2d\	-a	2f/	.
=36	=36	=36	=36	=36	=36	=36	=36
1G	se-	0.B]	.	1d	se-	2d/	-la.
.	.	.	.	.	.	2r	.
2E\	-cu-	.	.	1e	-cu-	1g	De-
2F\	.	.	.	.	.	.	.
1G	-la.	.	.	1d	-la.	1g	-um
=37	=37	=37	=37	=37	=37	=37	=37
1C	De-	0.r	.	2c\	De-	1e	de
.	.	.	.	2B\	.	.	.
2D\	-um	.	.	1A	-um	2f/	de-
2F\	de	.	.	.	.	1d	.
1E	de-	.	.	1G	de	.	.
.	.	.	.	.	.	2c#i/	.
=38	=38	=38	=38	=38	=38	=38	=38
0D	-o,	0.A	an-	1A	de-	1d	-o,
.	.	.	.	1F	.	1d	lu-
1AA	lu-	.	.	1E	-o,	2.c/	-men
.	.	.	.	.	.	4d/	.
=39	=39	=39	=39	=39	=39	=39	=39
1C	-men	0.G	.	1.E	lu-	1e	de
0BB-	de	.	.	.	.	2g/	lu-
.	.	.	.	1.D	-men	2f/	.
.	.	.	.	.	.	1d	-mi-
=40	=40	=40	=40	=40	=40	=40	=40
0.AA	lu-	0.A	-cil-	1.E	de	1c	-ne,
.	.	.	.	.	.	1r	.
.	.	.	.	1F#i	lu-	.	.
.	.	.	.	.	.	1c	de-
.	.	.	.	2E/	-mi-	.	.
=41	=41	=41	=41	=41	=41	=41	=41
0GG	-mi-	0.B	.	1G	-ne,	1d	-um
.	.	.	.	1r	.	1.g	ve-
1GG	-ne,	.	.	1d	de-	.	.
.	.	.	.	.	.	2f/	.
=42	=42	=42	=42	=42	=42	=42	=42
1.D	de-	0.A	-la	1d	-um	0f	-rum
.	.	.	.	2d\	ve-	.	.
2E\	.	.	.	2c\	.	.	.
1F	-um	.	.	1A	-rum	1d	de
=43	=43	=43	=43	=43	=43	=43	=43
2E\	ve-	1G	do-	2B\	de	1e	de-
2C/	.	.	.	2c\	.	.	.
1D	.	1F	.	2A/	de-	2f/	.
.	.	.	.	2B\	.	2d/	.
1C	-rum	[1G	.	1c	-o	2.e/	.
.	.	.	.	.	.	4f/	.
=44	=44	=44	=44	=44	=44	=44	=44
1E	de	1G]	.	2B\	ve-	1g	.
.	.	.	.	2c\	.	.	.
2D\	de-	0A	.	1d	.	1f	.
1F	.	.	.	.	.	.	.
.	.	.	.	1c	.	2.a/	.
2E\	.	.	.	.	.	.	.
.	.	.	.	.	.	4g/	.
=45	=45	=45	=45	=45	=45	=45	=45
0.C	-o	0.G	-mi-	0.c	-ro.	1e	-o
.	.	.	.	.	.	2r	.
.	.	.	.	.	.	2e/	ve-
.	.	.	.	.	.	2c/	.
.	.	.	.	.	.	[2g/	.
=46	=46	=46	=46	=46	=46	=46	=46
1C	ve-	0.G	-ni,	0.r	.	4g/]	.
.	.	.	.	.	.	4f/	.
.	.	.	.	.	.	2e/	.
1BBni	.	.	.	.	.	1d	.
1C	-ro.	.	.	.	.	1c	-ro.
=47	=47	=47	=47	=47	=47	=47	=47
2r	.	0.r	.	1A	Ge-	0.r	.
2F\	Ge-	.	.	.	.	.	.
2E\	.	.	.	2G/	-ni-	.	.
2C/	.	.	.	1c	-tum,	.	.
1D	-ni-	.	.	.	.	.	.
.	.	.	.	2B\	.	.	.
=48	=48	=48	=48	=48	=48	=48	=48
2C/	-tum,	0.r	.	1c	.	0.r	.
1E	non	.	.	.	.	.	.
.	.	.	.	1c	non	.	.
2F\	.	.	.	.	.	.	.
1G	fac-	.	.	1B	fac-	.	.
=49	=49	=49	=49	=49	=49	=49	=49
0.C	-tum,	0.r	.	0c	-tum,	0.r	.
.	.	.	.	1c	con-	.	.
=50	=50	=50	=50	=50	=50	=50	=50
1r	.	0.r	.	1G	-sub-	0.r	.
1r	.	.	.	2c\	-stan-	.	.
.	.	.	.	2d\	.	.	.
1C	con-	.	.	1e	-ti-	.	.
=51	=51	=51	=51	=51	=51	=51	=51
1GG	-sub-	0.r	.	1d	-a-	0.r	.
2C/	-stan-	.	.	1.c	-lem	.	.
2D\	.	.	.	.	.	.	.
1E	-ti-	.	.	.	.	.	.
.	.	.	.	2B\	.	.	.
=52	=52	=52	=52	=52	=52	=52	=52
1D	-a-	0.r	.	1B	pa-	0.r	.
0C	-lem	.	.	1.A	.	.	.
.	.	.	.	2G/	.	.	.
=53	=53	=53	=53	=53	=53	=53	=53
1BB-	pa-	0.r	.	1G	-tri:	0.r	.
0AA	.	.	.	2r	.	.	.
.	.	.	.	1F#i	per	.	.
.	.	.	.	2E/	.	.	.
=54	=54	=54	=54	=54	=54	=54	=54
1GG	-tri:	0.r	.	1G	quem	0.r	.
2r	.	.	.	1G	om-	.	.
1C	per	.	.	.	.	.	.
.	.	.	.	1G	-ni-	.	.
2BBni/	.	.	.	.	.	.	.
=55	=55	=55	=55	=55	=55	=55	=55
2.C/	quem	0.r	.	1G	-a	0.r	.
4D\	.	.	.	.	.	.	.
2E\	om-	.	.	2r	.	.	.
2F\	.	.	.	1c	fa-	.	.
1D	-ni-	.	.	.	.	.	.
.	.	.	.	2B\	.	.	.
=56	=56	=56	=56	=56	=56	=56	=56
1C	-a	0.r	.	2c\	.	0.r	.
.	.	.	.	2e\	.	.	.
2GG/	fa-	.	.	2d\	.	.	.
2AA/	.	.	.	2.c\	.	.	.
2GG/	.	.	.	.	.	.	.
.	.	.	.	4B\	.	.	.
[2C/	.	.	.	4A/	.	.	.
.	.	.	.	4G/	.	.	.
=57	=57	=57	=57	=57	=57	=57	=57
2C/]	.	0.r	.	2G/	.	0.r	.
2E\	.	.	.	2r	.	.	.
2F\	.	.	.	2A/	.	.	.
1G	.	.	.	2G/	.	.	.
.	.	.	.	2E/	.	.	.
2A\	.	.	.	2F/	.	.	.
=58	=58	=58	=58	=58	=58	=58	=58
2F\	.	0.r	.	2D/	.	0.r	.
1G	.	.	.	2E/	.	.	.
.	.	.	.	2C/	.	.	.
2C/	.	.	.	2r	.	.	.
2D\	.	.	.	2.F/	.	.	.
2BB-/	.	.	.	.	.	.	.
.	.	.	.	4G/	.	.	.
=59	=59	=59	=59	=59	=59	=59	=59
2C/	.	0.r	.	2A/	.	0.r	.
2GG/	.	.	.	2B\	.	.	.
2C/	.	.	.	2G/	.	.	.
2E\	.	.	.	2c\	.	.	.
2D\	.	.	.	2d\	.	.	.
[2G\	.	.	.	2B\	.	.	.
=60	=60	=60	=60	=60	=60	=60	=60
2G\]	.	0.r	.	2e\	.	0.r	.
2F\	.	.	.	2.d\	.	.	.
2G\	.	.	.	.	.	.	.
.	.	.	.	4c\	.	.	.
2E\	.	.	.	1c	-cta	.	.
1D	-cta	.	.	.	.	.	.
.	.	.	.	2B\	.	.	.
=61	=61	=61	=61	=61	=61	=61	=61
0.C	sunt.	0.r	.	0c	sunt.	0.r	.
.	.	.	.	2c\	.	.	.
.	.	.	.	2B\	.	.	.
=62	=62	=62	=62	=62	=62	=62	=62
0.r	.	0.r	.	0.G	.	1d	Qui
.	.	.	.	.	.	2e/	pro-
.	.	.	.	.	.	1g	.
.	.	.	.	.	.	2f/	-pter
=63	=63	=63	=63	=63	=63	=63	=63
1C	Qui	0G	fi-	1r	.	1e	nos
2BB-/	prop-	.	.	1r	.	1d	ho-
2GG/	.	.	.	.	.	.	.
1AA	-ter	2E/	-at	1A	Qui	1c	-mi-
.	.	2F/	.	.	.	.	.
=64	=64	=64	=64	=64	=64	=64	=64
1GG	nos	1G	mi-	1B	prop-	1d	-nes,
1BB-	ho-	2F/	.	1d	.	1r	.
.	.	2D/	.	.	.	.	.
1C	-mi-	1E	.	1c	-ter	1g	et
=65	=65	=65	=65	=65	=65	=65	=65
1.GG	-nes,	0D	-hi	0B	nos	1g	prop-
.	.	.	.	.	.	2g/	-ter
2AA/	.	.	.	.	.	2f/	.
1BB-	et	1D	se-	[1G	ho-	1d	no-
=66	=66	=66	=66	=66	=66	=66	=66
1C	prop-	1E	-cun-	2G/]	.	1c	-stram
.	.	.	.	1A	-mi-	.	.
0D	-ter	0F	-dum	.	.	1r	.
.	.	.	.	1B	.	.	.
.	.	.	.	.	.	1f	sa-
.	.	.	.	2A/	.	.	.
=67	=67	=67	=67	=67	=67	=67	=67
1.C	nos-	1G	ver-	1c	-nes,	2e/	-lu-
.	.	.	.	.	.	2.g/	.
.	.	2A/	.	2c\	et	.	.
.	.	.	.	.	.	4f/	.
1E	-tram	2G/	.	2B\	.	2g/	.
.	.	1c	.	1A	prop-	1a	.
2F\	sa-	.	.	.	.	.	.
=68	=68	=68	=68	=68	=68	=68	=68
1G	-lu-	1B	-bum	1G	-ter	2d/	.
.	.	.	.	.	.	2e/	.
0D	.	0A	.	1d	no-	2g/	.
.	.	.	.	.	.	1f#i	.
.	.	.	.	1d	-stram	.	.
.	.	.	.	.	.	2e/	.
=69	=69	=69	=69	=69	=69	=69	=69
0.GG	-tem,	0.G	tu-	1.d	sa-	1g	-tem,
.	.	.	.	.	.	1g	de-
.	.	.	.	1.B	-lu-	.	.
.	.	.	.	.	.	1g	-scen-
=70	=70	=70	=70	=70	=70	=70	=70
0.C	de-	0.G	-um.	1c	-tem,	1e	-dit
.	.	.	.	2r	.	2d/	.
.	.	.	.	2C/	de-	1c	.
.	.	.	.	1E	-scen-	.	.
.	.	.	.	.	.	4B/	.
.	.	.	.	.	.	4A/	.
=71	=71	=71	=71	=71	=71	=71	=71
1C	-scen-	0.r	.	1E	-dit	2G/	.
.	.	.	.	.	.	2c/	de
2D\	-dit	.	.	2F/	de	2B/	.
2E\	.	.	.	2G/	.	2c/	.
2D\	de	.	.	2A/	.	2.d/	.
[2F\	ce-	.	.	2D/	.	.	.
.	.	.	.	.	.	4c/	.
=72	=72	=72	=72	=72	=72	=72	=72
2F\]	.	0.r	.	2A/	ce-	2d/	.
2G\	.	.	.	2B\	.	2.e/	ce-
2C/	.	.	.	2c\	.	.	.
.	.	.	.	.	.	4c/	.
2E\	.	.	.	2G/	.	1c	.
1D	.	.	.	4F/	.	.	.
.	.	.	.	2F/	.	.	.
.	.	.	.	.	.	2B/	.
.	.	.	.	4E/	.	.	.
=73	=73	=73	=73	=73	=73	=73	=73
[0.Cl	-lis.	[0.Gl	lis.	1G	.	[0.cl	-lis.
.	.	.	.	2E/	.	.	.
.	.	.	.	2F/	.	.	.
.	.	.	.	1G	.	.	.
=74	=74	=74	=74	=74	=74	=74	=74
0.C]	.	0.G]	.	0.Cl	-lis.	0.c]	.
!!LO:LB:i:g=z
=75||	=75||	=75||	=75||	=75||	=75||	=75||	=75||
*>B	*>B	*>B	*>B	*>B	*>B	*>B	*>B
*clefF4	*	*clefGv2	*	*clefGv2	*	*clefG2	*
*k[b-]	*	*k[]	*	*k[]	*	*k[]	*
*M2/1	*	*M2/1	*	*M2/1	*	*M2/1	*
*met(C|)	*	*met(C|)	*	*met(C|)	*	*met(C|)	*
!!section: Et incarnatus est
!!!OMD: Et incarnatus est
0r	.	0r	.	1.A	Et	0r	.
.	.	.	.	2B\	.	.	.
=76.	=76	=76.	=76	=76.	=76	=76.	=76
0r	.	0r	.	0c	in-	1.e	Et
.	.	.	.	.	.	2f/	.
=77	=77	=77	=77	=77	=77	=77	=77
0r	.	0r	.	1c	-car-	0g	in-
.	.	.	.	[1c	-na-	.	.
=78.	=78	=78.	=78	=78.	=78	=78.	=78
0r	.	0r	.	1c]	.	1g	-car-
.	.	.	.	1c	-tus	[1g	-na-
=79	=79	=79	=79	=79	=79	=79	=79
0r	.	0r	.	0G	est	1g]	.
.	.	.	.	.	.	1g	-tus
=80.	=80	=80.	=80	=80.	=80	=80.	=80
0r	.	0r	.	1r	.	0d	est
.	.	.	.	1G	de	.	.
=81	=81	=81	=81	=81	=81	=81	=81
0r	.	0r	.	1A	spi-	1r	.
.	.	.	.	1B	-ri-	1d	de
=82.	=82	=82.	=82	=82.	=82	=82.	=82
0r	.	0r	.	1.c	-tu	1e	spi-
.	.	.	.	.	.	1f	-ri-
.	.	.	.	2B\	.	.	.
=83	=83	=83	=83	=83	=83	=83	=83
0r	.	0r	.	0G	.	1.g	-tu
.	.	.	.	.	.	2f/	.
=84.	=84	=84.	=84	=84.	=84	=84.	=84
0r	.	0r	.	1r	.	1d	.
.	.	.	.	1G	san-	1r	.
=85	=85	=85	=85	=85	=85	=85	=85
0r	.	0r	.	2F/	.	1d	san-
.	.	.	.	2G/	.	.	.
.	.	.	.	[1A	.	2c/	.
.	.	.	.	.	.	2d/	.
=86.	=86	=86.	=86	=86.	=86	=86.	=86
0r	.	0r	.	2A/]	.	1.e	.
.	.	.	.	2G/	.	.	.
.	.	.	.	1E	.	.	.
.	.	.	.	.	.	2d/	.
=87	=87	=87	=87	=87	=87	=87	=87
0r	.	0r	.	1.G	.	1B	.
.	.	.	.	.	.	[1d	.
.	.	.	.	2F/	.	.	.
=88.	=88	=88.	=88	=88.	=88	=88.	=88
0r	.	0r	.	2D/	.	2d/]	.
.	.	.	.	2E/	.	2c/	.
.	.	.	.	4F/	.	1A	.
.	.	.	.	4E/	.	.	.
.	.	.	.	2F/	.	.	.
=89	=89	=89	=89	=89	=89	=89	=89
0r	.	0r	.	1G	.	1G	.
.	.	.	.	1E	.	[1c	.
=90.	=90	=90.	=90	=90.	=90	=90.	=90
0r	.	0r	.	0D	.	2c/]	.
.	.	.	.	.	.	2B/	.
.	.	.	.	.	.	2B/	.
.	.	.	.	.	.	2A/	.
=91	=91	=91	=91	=91	=91	=91	=91
0r	.	0r	.	[0C	-cto	0c	-cto
=92.	=92	=92.	=92	=92.	=92	=92.	=92
0r	.	0r	.	0C]	.	0r	.
=93	=93	=93	=93	=93	=93	=93	=93
0r	.	0r	.	0r	.	[0g	ex
=94.	=94	=94.	=94	=94.	=94	=94.	=94
0r	.	0r	.	0r	.	3%2g]V	.
.	.	.	.	.	.	3%4eZ	Ma-
=95	=95	=95	=95	=95	=95	=95	=95
0r	.	0r	.	3%4GV	ex	3%2eV	-ri-
.	.	.	.	.	.	3%2.d	.
.	.	.	.	[3%2GZ	Ma-	.	.
.	.	.	.	.	.	3c/Z	.
=96.	=96	=96.	=96	=96.	=96	=96.	=96
0r	.	0r	.	3%2G]V	.	3%2BV	.
.	.	.	.	3%4F#iZ	-ri-	3%4AZ	.
=97	=97	=97	=97	=97	=97	=97	=97
0r	.	0r	.	3%2.GV	-a	3%2GV	-a
.	.	.	.	.	.	3%2B	.
.	.	.	.	3F/	.	.	.
.	.	.	.	3%2EZ	.	3%2cZ	.
=98.	=98	=98.	=98	=98.	=98	=98.	=98
0r	.	0r	.	3%2DV	Vir-	3%4dV	vir-
.	.	.	.	3%4GZ	.	.	.
.	.	.	.	.	.	3%2eZ	.
=99	=99	=99	=99	=99	=99	=99	=99
0r	.	0r	.	3%2AV	.	3%2fV	.
.	.	.	.	3%2G	.	3%2.g	.
.	.	.	.	3%2BZ	.	.	.
.	.	.	.	.	.	3f/Z	.
=100.	=100	=100.	=100	=100.	=100	=100.	=100
0r	.	0r	.	3%2cV	.	3%2eV	.
.	.	.	.	3%4dZ	.	3%2d	.
.	.	.	.	.	.	3%2fZ	.
=101	=101	=101	=101	=101	=101	=101	=101
0r	.	0r	.	3%2eV	.	3%2gV	.
.	.	.	.	3%2c	.	3%2a	.
.	.	.	.	[3%2dZ	.	3b\	.
.	.	.	.	.	.	3a/Z	.
=102.	=102	=102.	=102	=102.	=102	=102.	=102
0r	.	0r	.	3%2d]V	.	3g/V	.
.	.	.	.	.	.	3f/	.
.	.	.	.	3%2c	.	3%2e	.
.	.	.	.	[3%2AZ	.	3%2rZ	.
=103	=103	=103	=103	=103	=103	=103	=103
0r	.	0r	.	3%2A]V	.	3%2cV	.
.	.	.	.	3%2B	.	3%2d	.
.	.	.	.	3%2GZ	.	[3%2eZ	.
=104.	=104	=104.	=104	=104.	=104	=104.	=104
0r	.	0r	.	3%2.AV	.	3%2e]V	.
.	.	.	.	.	.	3%4aZ	.
.	.	.	.	3G/	.	.	.
.	.	.	.	3%2FZ	.	.	.
=105	=105	=105	=105	=105	=105	=105	=105
0r	.	0r	.	3%2EV	.	3%2gV	.
.	.	.	.	3%2D	.	3%2.f	.
.	.	.	.	[3%2GZ	.	.	.
.	.	.	.	.	.	3e/Z	.
=106.	=106	=106.	=106	=106.	=106	=106.	=106
0r	.	0r	.	3%2G]V	.	3%4eV	-gi-
.	.	.	.	3%4FZ	-gi-	.	.
.	.	.	.	.	.	3%2dZ	.
=107	=107	=107	=107	=107	=107	=107	=107
0r	.	0r	.	1E	-ne:	0e	-ne:
.	.	.	.	1r	.	.	.
=108.	=108	=108.	=108	=108.	=108	=108.	=108
0r	.	0r	.	1.C	Et	0r	.
.	.	.	.	2D/	.	.	.
=109	=109	=109	=109	=109	=109	=109	=109
0r	.	0r	.	1E	.	1.c	Et
.	.	.	.	1F	.	.	.
.	.	.	.	.	.	2d/	.
=110.	=110	=110.	=110	=110.	=110	=110.	=110
0r	.	0r	.	1G	ho-	1e	.
.	.	.	.	1A	.	1f	.
=111	=111	=111	=111	=111	=111	=111	=111
0r	.	0r	.	1G	-mo	1g	ho-
.	.	.	.	[1c	fac-	1a	.
=112.	=112	=112.	=112	=112.	=112	=112.	=112
0r	.	0r	.	2c\]	.	1g	-mo
.	.	.	.	2d\	.	.	.
.	.	.	.	1e	.	[1cc	fac-
=113	=113	=113	=113	=113	=113	=113	=113
0r	.	0r	.	1c	.	2cc\]	.
.	.	.	.	.	.	2b\	.
.	.	.	.	1d	.	2a/	.
.	.	.	.	.	.	2f/	.
=114.	=114	=114.	=114	=114.	=114	=114.	=114
0r	.	0r	.	2B\	.	2g/	.
.	.	.	.	2d\	.	2f/	.
.	.	.	.	2c\	.	1e	.
.	.	.	.	4B\	.	.	.
.	.	.	.	4c\	.	.	.
=115	=115	=115	=115	=115	=115	=115	=115
0r	.	0r	.	1d	.	1d	.
.	.	.	.	1G	.	[1g	-tus
=116.	=116	=116.	=116	=116.	=116	=116.	=116
0r	.	0r	.	0A	-tus	2g/]	.
.	.	.	.	.	.	2f#i/	.
.	.	.	.	.	.	2f#i/	.
.	.	.	.	.	.	2e/	.
=117	=117	=117	=117	=117	=117	=117	=117
[0GG	Cru-	0r	.	0G	est.	[0g	est.
=118.	=118	=118.	=118	=118.	=118	=118.	=118
0GG]	.	0r	.	0r	.	0g]	.
=119	=119	=119	=119	=119	=119	=119	=119
0GG	-ci-	[0G	Be-	0d	Cru-	0r	.
=120.	=120	=120.	=120	=120.	=120	=120.	=120
[0C	-fi-	0G]	.	0c	-ci-	0g	Cru-
=121	=121	=121	=121	=121	=121	=121	=121
0C_	.	0G	-a-	1.c	-fi-	1g	-ci-
.	.	.	.	.	.	[1e	-fi-
.	.	.	.	2B\	.	.	.
=122.	=122	=122.	=122	=122.	=122	=122.	=122
0C_	.	[0c	.	2A/	.	1e]	.
.	.	.	.	2G/	.	.	.
.	.	.	.	[1G	-xus	1e	-xus
=123	=123	=123	=123	=123	=123	=123	=123
0C]	.	0c]	.	1G]	.	1e	e-
.	.	.	.	1E	e-	1e	-ti-
=124.	=124	=124.	=124	=124.	=124	=124.	=124
0D	-xus	0A	-ta	1.F	-ti-	0d	-am
.	.	.	.	2D/	.	.	.
=125	=125	=125	=125	=125	=125	=125	=125
0GG	pro	0G	es,	0D	-am	1d	pro
.	.	.	.	.	.	1g	no-
=126.	=126	=126.	=126	=126.	=126	=126.	=126
1D	no-	0A	.	1r	.	1f	-bis
1F	.	.	.	[1d	pro	1f	sub
=127	=127	=127	=127	=127	=127	=127	=127
1E	-bis	0G	Ma-	2d\]	.	1g	Pon-
.	.	.	.	2c\	.	.	.
1C	sub	.	.	[1c	no-	1e	-ti-
=128.	=128	=128.	=128	=128.	=128	=128.	=128
0D	Pon-	0F	.	1c]	.	1f	-o
.	.	.	.	1B	.	1d	Pi-
=129	=129	=129	=129	=129	=129	=129	=129
0C	-ti-	0G	-ri-	1c	-bis	0e	-la-
.	.	.	.	1c	sub	.	.
=130.	=130	=130.	=130	=130.	=130	=130.	=130
1F	-o	[0A	.	1c	Pon-	1A	-to,
[1F	Pi	.	.	1c	-ti-	[1a	pas-
=131	=131	=131	=131	=131	=131	=131	=131
1F]	.	0A]	.	1A	-o	1a]	.
1D	.	.	.	[1d	Pi-	1f	-sus
=132.	=132	=132.	=132	=132.	=132	=132.	=132
0E	la-	1.G	.	2d\]	.	1g	et
.	.	.	.	1c#i	-la-	.	.
.	.	.	.	.	.	1e	se-
.	.	2F/	.	2B\	.	.	.
=133	=133	=133	=133	=133	=133	=133	=133
[0D	-to,	[0A	-a,	1d	-to,	1.f	-pul-
.	.	.	.	1r	.	.	.
.	.	.	.	.	.	2g/	.
=134.	=134	=134.	=134	=134.	=134	=134.	=134
0D]	.	0A]	.	0d	pas-	0a	-tus
=135	=135	=135	=135	=135	=135	=135	=135
0G	et	0r	.	0B	-sus	0d	est.
=136.	=136	=136.	=136	=136.	=136	=136.	=136
0A	se-	0r	.	1c	et	0r	.
.	.	.	.	1c	se-	.	.
=137	=137	=137	=137	=137	=137	=137	=137
0G	-pul-	0r	.	1d	-pul-	0r	.
.	.	.	.	1B	.	.	.
=138.	=138	=138.	=138	=138.	=138	=138.	=138
0F#i	-tus	0r	.	1.A	-tus	0r	.
.	.	.	.	2G/	.	.	.
=139	=139	=139	=139	=139	=139	=139	=139
1G	est.	0r	.	0G	est.	0r	.
1E	Et	.	.	.	.	.	.
=140.	=140	=140.	=140	=140.	=140	=140.	=140
0D	re-	0r	.	1r	.	0r	.
.	.	.	.	1F	Et	.	.
=141	=141	=141	=141	=141	=141	=141	=141
0C	-sur-	0r	.	2G/	re-	0r	.
.	.	.	.	1E	.	.	.
.	.	.	.	2C/	-sur-	.	.
=142.	=142	=142.	=142	=142.	=142	=142.	=142
1BB-	-re-	0r	.	1D	-re-	0r	.
[1C	-xit	.	.	1C	-xit	.	.
=143	=143	=143	=143	=143	=143	=143	=143
1C]	.	0r	.	1c	ter-	0r	.
1AA	ter-	.	.	1c	-ti-	.	.
=144.	=144	=144.	=144	=144.	=144	=144.	=144
1GG	-ti-	0r	.	1B	-a	0r	.
1C	-a	.	.	1e	di-	.	.
=145	=145	=145	=145	=145	=145	=145	=145
1BB-	di-	0r	.	1d	.	0r	.
1C	.	.	.	[1c	.	.	.
=146.	=146	=146.	=146	=146.	=146	=146.	=146
0D	.	0r	.	2c\]	.	0r	.
.	.	.	.	2B\	.	.	.
.	.	.	.	2B\	.	.	.
.	.	.	.	2A/	.	.	.
=147	=147	=147	=147	=147	=147	=147	=147
1C	-e,	0G	que	1c	-e,	0r	.
1BB-	se-	.	.	1r	.	.	.
=148.	=148	=148.	=148	=148.	=148	=148.	=148
0AA	-cun-	0F	.	0c	se-	0r	.
=149	=149	=149	=149	=149	=149	=149	=149
0GG	.	0G	cre-	0B	-cun-	0r	.
=150.	=150	=150.	=150	=150.	=150	=150.	=150
[0D	-dum	0A	-di-	1A	-dum	0r	.
.	.	.	.	[1d	scri-	.	.
=151	=151	=151	=151	=151	=151	=151	=151
0D]	.	0A	-di-	1d]	.	0r	.
.	.	.	.	[1d	-ptu-	.	.
=152.	=152	=152.	=152	=152.	=152	=152.	=152
0D	scri-	[0d	.	2d\]	.	0r	.
.	.	.	.	2c\	.	.	.
.	.	.	.	2B\	.	.	.
.	.	.	.	2A/	.	.	.
=153	=153	=153	=153	=153	=153	=153	=153
[0F	-ptu-	1d]	.	[0A	-ras.	0f	Et
.	.	[1c	.	.	.	.	.
=154.	=154	=154.	=154	=154.	=154	=154.	=154
0F]	.	2c\]	.	0A]	.	0f	a-
.	.	2B\	.	.	.	.	.
.	.	1c	.	.	.	.	.
=155	=155	=155	=155	=155	=155	=155	=155
0F	-ras.	0d	-sti	0A	.	0f	-scen-
=156.	=156	=156.	=156	=156.	=156	=156.	=156
0C	.	0c	per-	0G	.	0e	-dit
=157	=157	=157	=157	=157	=157	=157	=157
1r	.	0A	-fi-	0r	.	0f	in
[1D	Et	.	.	.	.	.	.
=158.	=158	=158.	=158	=158.	=158	=158.	=158
1D]	.	1B	-ci-	0r	.	1d	ce-
1C	a-	1c	.	.	.	1e	.
=159	=159	=159	=159	=159	=159	=159	=159
1D	-scen-	0A	-en-	0r	.	3%4fV	.
[1AA	-dit	.	.	.	.	.	.
.	.	.	.	.	.	3%2eZ	.
=160.	=160	=160.	=160	=160.	=160	=160.	=160
1AA]	.	0A	-tur	0r	.	1c	-lum,
1C	ad	.	.	.	.	1c	se-
=161	=161	=161	=161	=161	=161	=161	=161
1BB-	dex-	0G	in	0r	.	1d	-det
1GG	-te-	.	.	.	.	1B	ad
=162.	=162	=162.	=162	=162.	=162	=162.	=162
0AA	-ram	0F	.	0r	.	1c	dex-
.	.	.	.	.	.	1A	-te-
=163	=163	=163	=163	=163	=163	=163	=163
0GG	pa-	1G	.	0r	.	1B	-ram
.	.	[1G	.	.	.	2c/	pa-
.	.	.	.	.	.	[2d/	.
=164.	=164	=164.	=164	=164.	=164	=164.	=164
0D	.	1G]	.	0r	.	2d/]	.
.	.	.	.	.	.	2c/	.
.	.	1F	.	.	.	2A/	.
.	.	.	.	.	.	2B/	.
=165	=165	=165	=165	=165	=165	=165	=165
[0C	-tris.	[0G	te	0r	.	1c	-tris.
.	.	.	.	.	.	1r	.
=166.	=166	=166.	=166	=166.	=166	=166.	=166
0C]	.	0G]	.	1G	Et	1.e	Et
.	.	.	.	[1c	i-	.	.
.	.	.	.	.	.	2f/	.
=167	=167	=167	=167	=167	=167	=167	=167
1E	Et	0r	.	2c\]	.	1g	i-
.	.	.	.	2B\	.	.	.
1F	.	.	.	1A	-te-	1a	-te-
=168.	=168	=168.	=168	=168.	=168	=168.	=168
1G	i-	0r	.	1G	-rum	2d/	-rum
.	.	.	.	.	.	2e/	.
2F\	-te-	.	.	1d	ven-	[1f	ven-
[2D\	-rum	.	.	.	.	.	.
=169	=169	=169	=169	=169	=169	=169	=169
2D\]	.	0r	.	2B\	-tu-	2f/]	.
2E\	ven	.	.	1c	.	2e/	.
2C/	tu-	.	.	.	.	2g/	.
[2D\	.	.	.	2A/	.	2f/	.
=170.	=170	=170.	=170	=170.	=170	=170.	=170
4D/]	.	0r	.	2B\	.	1d	-tu-
4C/	.	.	.	.	.	.	.
2BB-/	.	.	.	1G	.	.	.
1AA	-rus	.	.	.	.	2.c/	-rus
.	.	.	.	2F#i/	-rus	.	.
.	.	.	.	.	.	4B/	.
=171	=171	=171	=171	=171	=171	=171	=171
2GG/	est	0r	.	1G	est	1d	est
2BB-/	.	.	.	.	.	.	.
2AA/	cum	.	.	1A	cum	1r	.
2C/	.	.	.	.	.	.	.
=172.	=172	=172.	=172	=172.	=172	=172.	=172
2BB-/	glo-	0r	.	1D	glo-	0r	.
1D	.	.	.	.	.	.	.
.	.	.	.	2d\	.	.	.
2E-\	.	.	.	2c\	.	.	.
=173	=173	=173	=173	=173	=173	=173	=173
2D\	.	0r	.	2d\	.	0r	.
2BB-/	.	.	.	2G/	.	.	.
2C/	.	.	.	2A/	.	.	.
2D\	.	.	.	2B-\	.	.	.
=174.	=174	=174.	=174	=174.	=174	=174.	=174
2GG/	.	0r	.	4c/	.	0r	.
.	.	.	.	4B-i/	.	.	.
2BB-/	.	.	.	4A/	.	.	.
.	.	.	.	4G/	.	.	.
1AA	-ri-	.	.	2.F#i/	-ri-	.	.
.	.	.	.	4E/	.	.	.
=175	=175	=175	=175	=175	=175	=175	=175
0GG	-a,	0G	que	1G	-a,	1d	cum
.	.	.	.	1r	.	[1g	.
=176.	=176	=176.	=176	=176.	=176	=176.	=176
0r	.	1G	di-	1d	iu-	2g/]	.
.	.	.	.	.	.	2f/	.
.	.	[1A	.	1c	.	2e/	.
.	.	.	.	.	.	2d/	.
=177	=177	=177	=177	=177	=177	=177	=177
0r	.	1A]	.	0A	-di-	1e	glo-
.	.	1F	.	.	.	2f/	.
.	.	.	.	.	.	2d/	.
=178.	=178	=178.	=178	=178.	=178	=178.	=178
0r	.	0E	-cta	0G	-ca-	2e/	.
.	.	.	.	.	.	1c#i	.
.	.	.	.	.	.	2B/	-ri-
=179	=179	=179	=179	=179	=179	=179	=179
0r	.	0D	sunt	0A	-re	0d	-a,
=180.	=180	=180.	=180	=180.	=180	=180.	=180
0r	.	[0F	ti-	0D	vi-	1a	iu-
.	.	.	.	.	.	1a	-di-
=181	=181	=181	=181	=181	=181	=181	=181
0D	cu-	0F]	.	1.d	-vos	0a	-ca-
.	.	.	.	2c\	.	.	.
=182.	=182	=182.	=182	=182.	=182	=182.	=182
0E	.	0G	-bi	0B	et	0g	-re
=183	=183	=183	=183	=183	=183	=183	=183
0F	-ius	0A	a	2A/	mor-	1f	vi-
.	.	.	.	2B\	.	.	.
.	.	.	.	[1c	.	1a	-vos
=184.	=184	=184.	=184	=184.	=184	=184.	=184
0G	.	0G	.	2c\]	.	1r	.
.	.	.	.	1B	-tu-	.	.
.	.	.	.	.	.	1d	et
.	.	.	.	2A/	.	.	.
=185	=185	=185	=185	=185	=185	=185	=185
[0C	re-	0G	do-	0c	-os:	1.e	mor-
.	.	.	.	.	.	2f/	.
=186.	=186	=186.	=186	=186.	=186	=186.	=186
0C_	.	1G	-mi-	1r	.	0g	-tu-
.	.	[1G	-no.	1C	cu-	.	.
=187	=187	=187	=187	=187	=187	=187	=187
0C_	.	1G]	.	1E	-iu-	0c	-os:
.	.	1F	.	1F	.	.	.
=188.	=188	=188.	=188	=188.	=188	=188.	=188
0C]	.	0E	.	0G	-re-	1e	cu-
.	.	.	.	.	.	1g	-ius
=189	=189	=189	=189	=189	=189	=189	=189
0F	-gni	0D	.	1A	-gni	1f	re-
.	.	.	.	1A	non	[1d	.
=190.	=190	=190.	=190	=190.	=190	=190.	=190
0E	non	0r	.	1.G	e-	1d]	.
.	.	.	.	.	.	1c#i	.
.	.	.	.	2F/	.	.	.
=191	=191	=191	=191	=191	=191	=191	=191
[0D	e-	0F	Al-	0A	-rit	1d	-gni
.	.	.	.	.	.	1r	.
=192.	=192	=192.	=192	=192.	=192	=192.	=192
0D]	.	0F	-le-	0d	fi-	1.A	non
.	.	.	.	.	.	2B/	.
=193	=193	=193	=193	=193	=193	=193	=193
0C	.	[0G	.	1e	.	2c/	.
.	.	.	.	.	.	2d/	.
.	.	.	.	1c	.	1e	.
=194.	=194	=194.	=194	=194.	=194	=194.	=194
0GG	.	0G]	.	2B\	.	1d	e-
.	.	.	.	1d	.	.	.
.	.	.	.	.	.	[1g	-rit
.	.	.	.	2B\	.	.	.
=195	=195	=195	=195	=195	=195	=195	=195
0C	-rit	[0G	-lu-	2.c\	-nis,	2g/]	.
.	.	.	.	.	.	2f/	.
.	.	.	.	4B\	.	.	.
.	.	.	.	1G	.	1e	.
=196.	=196	=196.	=196	=196.	=196	=196.	=196
0BBni	fi-	0G]	.	1r	.	1.d	fi-
.	.	.	.	1D	fi-	.	.
.	.	.	.	.	.	2c/	.
=197	=197	=197	=197	=197	=197	=197	=197
[0Cl	-nis.	[0Gl	-ia.	1.E	.	[0cl	-nis.
.	.	.	.	2F/	.	.	.
=198.	=198	=198.	=198	=198.	=198	=198.	=198
0C_	.	0G_	.	0G	.	0c_	.
=199	=199	=199	=199	=199	=199	=199	=199
0C]	.	0G]	.	0Cl	-nis.	0c]	.
!!LO:LB:i:g=z
=200||	=200||	=200||	=200||	=200||	=200||	=200||	=200||
*>C	*>C	*>C	*>C	*>C	*>C	*>C	*>C
*clefF4	*	*clefGv2	*	*clefGv2	*	*clefG2	*
*k[b-]	*	*k[]	*	*k[]	*	*k[]	*
*M3/1	*	*M3/1	*	*M3/1	*	*M3/1	*
*met(O)	*	*met(O)	*	*met(O)	*	*met(O)	*
!!section: Et in spiritum
!!!OMD: Et in spiritum
0.r	.	0.r	.	0C	Et	0c	Et
.	.	.	.	1C	in	1c	in
=201	=201	=201	=201	=201	=201	=201	=201
0.r	.	0.r	.	0E	spi-	1c	spi-
.	.	.	.	.	.	1B	.
.	.	.	.	1F	-ri-	1A	-ri-
=202	=202	=202	=202	=202	=202	=202	=202
0.r	.	0.r	.	1G	-tum	0G	-tum
.	.	.	.	1G	san-	.	.
.	.	.	.	[1E	-ctum,	1G	san-
=203	=203	=203	=203	=203	=203	=203	=203
0.r	.	0.r	.	2E/]	.	1c	-ctum
.	.	.	.	1A	do-	.	.
.	.	.	.	.	.	1c	do-
.	.	.	.	2G/	.	.	.
.	.	.	.	1F	-mi-	1d	-mi-
=204	=204	=204	=204	=204	=204	=204	=204
0.r	.	0.r	.	1E	-num	1e	-num
.	.	.	.	1C	.	1r	.
.	.	.	.	1r	.	[1a	et
=205	=205	=205	=205	=205	=205	=205	=205
0.r	.	0.r	.	0c	et	2a/]	.
.	.	.	.	.	.	1g	vi-
.	.	.	.	.	.	2e/	-vi-
.	.	.	.	2A/	vi-	1f	-fi-
.	.	.	.	2B\	-vi-	.	.
=206	=206	=206	=206	=206	=206	=206	=206
0.r	.	0.r	.	1c	-fi-	1e	-can-
.	.	.	.	2B\	.	2d/	.
.	.	.	.	1A	.	2e/	.
.	.	.	.	.	.	2f/	.
.	.	.	.	2G/	.	[2g/	.
=207	=207	=207	=207	=207	=207	=207	=207
0.r	.	0.r	.	2E/	.	2g/]	.
.	.	.	.	2F/	.	2f/	.
.	.	.	.	1.G	-can-	2e/	.
.	.	.	.	.	.	4d/	.
.	.	.	.	.	.	4c/	.
.	.	.	.	.	.	1B	.
.	.	.	.	2E/	.	.	.
=208	=208	=208	=208	=208	=208	=208	=208
0.r	.	0.r	.	2F/	.	2A/	.
.	.	.	.	2G/	.	2B/	.
.	.	.	.	2C/	.	2G/	.
.	.	.	.	2E/	.	1c	.
.	.	.	.	1D	.	.	.
.	.	.	.	.	.	2B/	.
=209	=209	=209	=209	=209	=209	=209	=209
0.r	.	0.r	.	0C	-tem:	0c	-tem:
.	.	.	.	1r	.	2r	.
.	.	.	.	.	.	[2c/	qui
=210	=210	=210	=210	=210	=210	=210	=210
0.r	.	0.r	.	1C	qui	2c/]	.
.	.	.	.	.	.	2c/	ex
.	.	.	.	2C/	ex	1e	pa-
.	.	.	.	1E	pa-	.	.
.	.	.	.	.	.	2e/	-tre
.	.	.	.	2E/	-tre	[2g/	fi-
=211	=211	=211	=211	=211	=211	=211	=211
0.r	.	0.r	.	1G	fi-	2g/]	.
.	.	.	.	.	.	2g/	-li-
.	.	.	.	2G/	-li-	1d	-o-
.	.	.	.	1D	-o-	.	.
.	.	.	.	.	.	2d/	-que
.	.	.	.	2D/	-que	[2f/	pro-
=212	=212	=212	=212	=212	=212	=212	=212
0.r	.	0.r	.	1F	pro-	4f/]	.
.	.	.	.	.	.	4e/	.
.	.	.	.	.	.	1c	-ce-
.	.	.	.	1A	-ce-	.	.
.	.	.	.	.	.	2f/	.
.	.	.	.	2G/	.	2.g/	.
.	.	.	.	[2c\	.	.	.
.	.	.	.	.	.	4f/	.
=213	=213	=213	=213	=213	=213	=213	=213
0.r	.	0.r	.	2c\]	.	2e/	.
.	.	.	.	2d\	.	1d	.
.	.	.	.	2B\	.	.	.
.	.	.	.	2G/	.	2g/	.
.	.	.	.	1A	.	2e/	.
.	.	.	.	.	.	2f#i/	.
=214	=214	=214	=214	=214	=214	=214	=214
0.r	.	0.G	Ec-	0G	-dit.	1g	-dit.
.	.	.	.	.	.	1r	.
.	.	.	.	1r	.	1g	Qui
=215	=215	=215	=215	=215	=215	=215	=215
0.r	.	[0.c	.	1A	Qui	1e	cum
.	.	.	.	1A	cum	1e	pa-
.	.	.	.	1A	pa-	1f	-tre
=216	=216	=216	=216	=216	=216	=216	=216
0.C	Si-	0.c]	.	1G	-tre	1g	et
.	.	.	.	2G/	et	1g	fi-
.	.	.	.	1G	fi-	.	.
.	.	.	.	.	.	1e	-li-
.	.	.	.	2G/	-li-	.	.
=217	=217	=217	=217	=217	=217	=217	=217
0.AA	.	0.c	-ce	1A	-o	0e	-o
.	.	.	.	1E	si-	.	.
.	.	.	.	1F	-mul	1c 1a	si-
=218	=218	=218	=218	=218	=218	=218	=218
[0.GG	-mul	[0.B	.	1G	ad-	0d	-mul
.	.	.	.	1G	-o-	.	.
.	.	.	.	2G/	-ra-	1d	ad-
.	.	.	.	2F/	.	.	.
=219	=219	=219	=219	=219	=219	=219	=219
0.GG]	.	0.B]	.	0D	-tur	1.d	-o-
.	.	.	.	.	.	1g	-ra-
.	.	.	.	1G	et	.	.
.	.	.	.	.	.	2f/	.
=220	=220	=220	=220	=220	=220	=220	=220
1.G	ad-	0.r	.	0B	con-	1d	-tur
.	.	.	.	.	.	1r	.
2F\	-o-	.	.	.	.	.	.
2G\	-ra-	.	.	2B\	-glo-	1g	et
2E\	.	.	.	2c\	.	.	.
=221	=221	=221	=221	=221	=221	=221	=221
0D	-tur	0.A	an-	0d	-ri-	1a	con-
.	.	.	.	.	.	0f	-glo-
1D	et	.	.	1d	-fi-	.	.
=222	=222	=222	=222	=222	=222	=222	=222
1E	con-	0.G	.	2B\	-ca-	0g	-ri-
.	.	.	.	1e	.	.	.
2C/	-glo-	.	.	.	.	.	.
2D\	-ri-	.	.	2d\	.	.	.
1E	-fi-	.	.	2.c#i\	.	1e	-fi-
.	.	.	.	4B\	.	.	.
=223	=223	=223	=223	=223	=223	=223	=223
0.D	-ca-	0.A	-cil-	0.d	-tur:	1.f#i	-ca-
.	.	.	.	.	.	2g/	.
.	.	.	.	.	.	2f#i/	.
.	.	.	.	.	.	2e/	.
=224	=224	=224	=224	=224	=224	=224	=224
0.GG	-tur.	0.B	.	1r	.	2g/	-tur:
.	.	.	.	.	.	2r	.
.	.	.	.	1r	.	1.d	qui
.	.	.	.	1G	qui	.	.
.	.	.	.	.	.	2e/	.
=225	=225	=225	=225	=225	=225	=225	=225
0.D	.	0.A	-la	1F	lo-	1f	lo-
.	.	.	.	1F	-cu-	2f/	-cu-
.	.	.	.	.	.	2g/	.
.	.	.	.	1F	-tus	1a	-tus
=226	=226	=226	=226	=226	=226	=226	=226
0.r	.	1G	do-	1G	est	1d	est
.	.	1F	.	1D	per	1a	per
.	.	[1G	.	1d	pro-	2b\	pro-
.	.	.	.	.	.	2g/	.
=227	=227	=227	=227	=227	=227	=227	=227
0.r	.	1G]	.	1B	-phe-	1.g	-phe-
.	.	0A	.	1.c	.	.	.
.	.	.	.	.	.	1f#i	.
.	.	.	.	2B\	.	2e/	.
=228	=228	=228	=228	=228	=228	=228	=228
0GG	Et	0.G	-mi-	0d	-tas.	1g	-tas.
.	.	.	.	.	.	2r	.
.	.	.	.	.	.	1g	Et
1GG	u-	.	.	1B	.	.	.
.	.	.	.	.	.	2f/	.
=229	=229	=229	=229	=229	=229	=229	=229
1C	-nam	0.G	-ni:	1G	.	2e/	u-
.	.	.	.	.	.	2c/	.
1BB-	.	.	.	1r	.	1d	-nam
1C	.	.	.	1G	Et	1c	.
=230	=230	=230	=230	=230	=230	=230	=230
1E	san-	0.r	.	1G	u-	1r	.
0D	.	.	.	1A	-nam	0f	san-
.	.	.	.	1B	san-	.	.
=231	=231	=231	=231	=231	=231	=231	=231
1C	-ctam,	0.r	.	1c	-ctam,	1e	-ctam,
0F	ca-	.	.	1.A	ca-	1.d	ca-
.	.	.	.	2G/	.	2c/	.
=232	=232	=232	=232	=232	=232	=232	=232
1E	-tho-	0.r	.	1G	-tho-	1c	-tho-
0D	-li-	.	.	2A/	-li-	1d	.
.	.	.	.	1F	.	.	.
.	.	.	.	.	.	2.B/	-li-
.	.	.	.	2E/	.	.	.
.	.	.	.	.	.	4A/	.
=233	=233	=233	=233	=233	=233	=233	=233
1C	-cam	0.r	.	1G	-cam	2c/	-cam
.	.	.	.	.	.	2r	.
1r	.	.	.	1E	.	2G/	et
.	.	.	.	.	.	2A/	a-
2GG/	et	.	.	1r	.	2B/	-po-
2AA/	a-	.	.	.	.	2c/	-sto-
=234	=234	=234	=234	=234	=234	=234	=234
2BB-/	-po-	0.r	.	2G/	et	2d/	-li-
2C/	-sto-	.	.	2A/	a-	2e/	-cam
2D\	-li-	.	.	2B\	-po-	2r	.
2E\	-cam	.	.	2c\	-sto-	2e/	ec-
2F\	ec-	.	.	2d\	-li-	2a/	-cle-
2E\	.	.	.	[2e\	-cam	2g/	.
=235	=235	=235	=235	=235	=235	=235	=235
2.A\	-cle-	0.r	.	2e\]	.	2e/	.
.	.	.	.	2.c\	ec-	2.f/	.
4G\	.	.	.	.	.	.	.
2A\	.	.	.	.	.	.	.
.	.	.	.	4B\	.	4e/	.
2G\	.	.	.	1B	-cle-	2e/	.
1F	-si-	.	.	.	.	2.d/	-si-
.	.	.	.	2A/	-si-	.	.
.	.	.	.	.	.	4c/	.
=236	=236	=236	=236	=236	=236	=236	=236
1.E	-am.	0.r	.	1B	-am.	[0.e	-am.
.	.	.	.	1r	.	.	.
2F\	.	.	.	.	.	.	.
1G	.	.	.	1r	.	.	.
=237	=237	=237	=237	=237	=237	=237	=237
1C	.	0.r	.	1G	Con-	0.e]	.
1r	.	.	.	1G	-fi-	.	.
1r	.	.	.	1E	-te-	.	.
=238	=238	=238	=238	=238	=238	=238	=238
1G	Con-	0.r	.	0C	-or	0.r	.
1G	-fi-	.	.	.	.	.	.
1E	-te-	.	.	1C	u-	.	.
=239	=239	=239	=239	=239	=239	=239	=239
0C	-or	0.r	.	1.E	-num	1g	Con-
.	.	.	.	.	.	1g	-fi-
.	.	.	.	2F/	.	.	.
1C	u-	.	.	1G	.	1e	-te-
=240	=240	=240	=240	=240	=240	=240	=240
1F	-num	0.r	.	1A	bap-	1c	-or
2E\	.	.	.	2G/	.	2r	.
1D	.	.	.	2A/	.	1f	u-
.	.	.	.	2B\	.	.	.
[2C/	bap-	.	.	[2c\	.	2e/	.
=241	=241	=241	=241	=241	=241	=241	=241
2C/]	.	0.r	.	2c\]	.	2g/	.
2D\	.	.	.	2A/	.	2f/	.
2BB-/	.	.	.	2G/	-tis-	1d	-num
2GG/	.	.	.	2B-\	.	.	.
1AA	.	.	.	2A/	.	2.c/	bap-
.	.	.	.	2F/	.	.	.
.	.	.	.	.	.	4B/	.
=242	=242	=242	=242	=242	=242	=242	=242
2GG/	-tis-	0.r	.	2G/	.	1d	-tis-
2BB-/	.	.	.	2D/	.	.	.
2C/	.	.	.	2E/	.	2G/	.
2E-i\	.	.	.	1G	.	2c/	.
1D	.	.	.	.	.	2d/	.
.	.	.	.	2F/	.	2B/	.
=243	=243	=243	=243	=243	=243	=243	=243
0C	-ma	0.r	.	1G	-ma	1c	-ma
.	.	.	.	1r	.	1r	.
1G	in	.	.	1B	in	1d	in
=244	=244	=244	=244	=244	=244	=244	=244
1G	re-	0.r	.	1B	re-	1e	re-
0A	-mis-	.	.	1.c	-mis-	1.f	-mis-
.	.	.	.	2B\	.	2e/	.
=245	=245	=245	=245	=245	=245	=245	=245
1G	-si-	0.r	.	1B	-si-	1e	-si-
0F	-o-	.	.	1.A	-o-	2f/	-o-
.	.	.	.	.	.	1d	.
.	.	.	.	2G/	.	2c/	.
=246	=246	=246	=246	=246	=246	=246	=246
0E	-nem	0.r	.	1B	-nem	0e	-nem
.	.	.	.	1c	.	.	.
1D	pec-	.	.	1d	pec-	2A/	pec-
.	.	.	.	.	.	2B/	.
=247	=247	=247	=247	=247	=247	=247	=247
1E	-ca-	0.r	.	1G	-ca-	1c	-ca-
1.F	-to-	.	.	1.A	-to-	1.d	-to-
2E\	.	.	.	2G/	.	2c/	.
=248	=248	=248	=248	=248	=248	=248	=248
[0.C	-rum.	0.r	.	2c\	.	1.e	.
.	.	.	.	2B\	.	.	.
.	.	.	.	1G	.	.	.
.	.	.	.	.	.	2c/	.
.	.	.	.	2A/	-rum.	1c	-rum.
.	.	.	.	[2G/	.	.	.
=249	=249	=249	=249	=249	=249	=249	=249
1C]	.	0.r	.	2G/]	.	1r	.
.	.	.	.	2E/	.	.	.
1r	.	.	.	2F/	.	1c	Et
.	.	.	.	2E/	.	.	.
1r	.	.	.	2D/	.	1f	ex-
.	.	.	.	2r	.	.	.
=250	=250	=250	=250	=250	=250	=250	=250
0.r	.	0.r	.	1C	Et	1e	-spe-
.	.	.	.	1F	ex-	1c	-cto
.	.	.	.	1E	-spe-	1r	.
=251	=251	=251	=251	=251	=251	=251	=251
0.r	.	0.r	.	1C	-cto	1e	re-
.	.	.	.	1r	.	1a	-sur-
.	.	.	.	1E	re-	1g	-rec-
=252	=252	=252	=252	=252	=252	=252	=252
0.r	.	0.r	.	1A	-sur-	2e/	-ti-
.	.	.	.	.	.	2f/	.
.	.	.	.	1G	-rec-	1.g	-o-
.	.	.	.	2E/	-ti-	.	.
.	.	.	.	2F/	.	2f/	.
=253	=253	=253	=253	=253	=253	=253	=253
0.r	.	0.r	.	1.G	-o-	1e	.
.	.	.	.	.	.	1d	.
.	.	.	.	2F/	.	.	.
.	.	.	.	1E	-nem	1c	-nem
=254	=254	=254	=254	=254	=254	=254	=254
0.r	.	0.r	.	1D	mor-	1f	mor-
.	.	.	.	1C	.	2e/	-tu-
.	.	.	.	.	.	2c/	.
.	.	.	.	1F	-tu-	1d	-o-
=255	=255	=255	=255	=255	=255	=255	=255
0.r	.	0.r	.	2E/	-o-	1c	.
.	.	.	.	2C/	.	.	.
.	.	.	.	2.D/	.	2B/	.
.	.	.	.	.	.	1A	.
.	.	.	.	4E/	.	.	.
.	.	.	.	2F/	.	.	.
.	.	.	.	2G/	.	2G/	.
=256	=256	=256	=256	=256	=256	=256	=256
0.r	.	0.r	.	2C/	.	2c/	.
.	.	.	.	1E	.	2B/	.
.	.	.	.	.	.	2c/	.
.	.	.	.	2F/	.	2.d/	.
.	.	.	.	1D	.	.	.
.	.	.	.	.	.	4A/	.
.	.	.	.	.	.	2B/	.
=257	=257	=257	=257	=257	=257	=257	=257
0.r	.	0.r	.	0C	-rum.	0.c	-rum.
.	.	.	.	1r	.	.	.
=258	=258	=258	=258	=258	=258	=258	=258
0.C	Et	0G	Fi-	0c	Et	1r	.
.	.	.	.	.	.	1e	Et
.	.	2E/	-at	[1c	vi-	2g/	vi-
.	.	2F/	.	.	.	2f/	.
=259	=259	=259	=259	=259	=259	=259	=259
1C	vi-	1G	mi-	1c]	.	1e	.
1D	.	2F/	.	0A	-tam	2d/	.
.	.	2D/	.	.	.	1d	.
1AA	-tam	1E	.	.	.	.	.
.	.	.	.	.	.	2c#i/	.
=260	=260	=260	=260	=260	=260	=260	=260
1r	.	0D	-hi	1A	ven-	0d	-tam
0F	ven-	.	.	1A	-tu-	.	.
.	.	1D	se-	1A	-ri	1d	ven-
=261	=261	=261	=261	=261	=261	=261	=261
1E	-tu-	1E	-cun-	1G	se-	1c	-tu-
0D	.	0F	-dum	2A/	.	1d	.
.	.	.	.	1B	-cu-	.	.
.	.	.	.	.	.	1f	.
.	.	.	.	2A/	.	.	.
=262	=262	=262	=262	=262	=262	=262	=262
0C	-ri	1G	ver-	1.c	-li,	1e	-ri
.	.	2A/	.	.	.	2r	.
.	.	2G/	.	2B\	.	1e	se-
1C	se-	1c	.	1G	.	.	.
.	.	.	.	.	.	2f/	.
=263	=263	=263	=263	=263	=263	=263	=263
1GG	.	1B	.	0d	se-	1g	.
0D	-cu-	0A	-bum	.	.	1a	.
.	.	.	.	1d	-cu-	2f#i/	-cu-
.	.	.	.	.	.	2e/	.
=264	=264	=264	=264	=264	=264	=264	=264
1E	-li.	[0.G	tu-	1B	-li.	1g	-li.
0C	.	.	.	1c	.	2r	.
.	.	.	.	.	.	2e/	A-
.	.	.	.	2r	.	2f/	.
.	.	.	.	2C/	A-	[2e/	.
=265	=265	=265	=265	=265	=265	=265	=265
1C	A-	0.G]	.	1E	.	4e/]	.
.	.	.	.	.	.	4d/	.
.	.	.	.	.	.	2c/	.
0GG	.	.	.	0D	.	2B/	.
.	.	.	.	.	.	2c/	.
.	.	.	.	.	.	2d/	.
.	.	.	.	.	.	2B/	.
=266	=266	=266	=266	=266	=266	=266	=266
[0.Cl	-men.	[0.Gl	-um.	1C	.	[0.cl	-men.
.	.	.	.	2E/	.	.	.
.	.	.	.	2F/	.	.	.
.	.	.	.	1G	.	.	.
=267	=267	=267	=267	=267	=267	=267	=267
0.C]	.	0.G]	.	0.Cl	-men.	0.c]	.
==	==	==	==	==	==	==	==
*-	*-	*-	*-	*-	*-	*-	*-
!!!RDF**kern: l=long note in original notation
!!!RDF**kern: i=editorial accidental
!!!RDF**kern: V=start of tuplet marker
!!!RDF**kern: Z=end of tuplet marker
!!!ENC:	Alejandro Planchart
!!!END:	2014/07/25/
!!!EED:	Alejandro Planchart, Jesse Rodin
!!!EEV:	2014/07/27/
!!!ONB:	Translated from SCORE and edited on 2014/07/27/ by Craig Sapp
!!!SMS: Ed. J. Rodin based on edition by A. Planchart
!!muse2ps: T^@{OPR}^u^@{ONM}{. }@{OTL}^C^@{COM}\n@{SMS}^i2I150v85,85,85,130c145z18
